dist/svgs/devui-icons/op/go-cloud-ide.svg

<?xml version="1.0" encoding="UTF-8"?>
<svg width="16px" height="16px" viewBox="0 0 16 16" version="1.1" xmlns="http://www.w3.org/2000/svg" xmlns:xlink="http://www.w3.org/1999/xlink">
    <title>操作/cloud_ide</title>
    <desc>Created with Sketch.</desc>
    <g id="操作/cloud_ide" stroke="none" stroke-width="1" fill="none" fill-rule="evenodd">
        <g>
            <path d="M12,14 L4,14 C1.790861,14 0,12.209139 0,10 C0,8.13560343 1.27553501,6.56912403 3.00154723,6.12561959 C3.00051776,6.08387134 3,6.04199614 3,6 C3,3.23857625 5.23857625,1 8,1 C10.7614237,1 13,3.23857625 13,6 C13,6.04199614 12.9994822,6.08387134 12.9984528,6.12561959 C14.724465,6.56912403 16,8.13560343 16,10 C16,12.209139 14.209139,14 12,14 Z M6.06066017,10.390879 L4.41421356,8.74443241 L6.06066017,7.0979858 L5.35355339,6.39087902 L3,8.74443241 L5.35355339,11.0979858 L6.06066017,10.390879 Z M10,7.0979858 L11.6464466,8.74443241 L10,10.390879 L10.7071068,11.0979858 L13.0606602,8.74443241 L10.7071068,6.39087902 L10,7.0979858 Z M9,6 L6,12 L7,12 L10,6 L9,6 Z" id="形状" fill="#293040" fill-rule="nonzero"></path>
        </g>
    </g>
</svg>

<svg xmlns="http://www.w3.org/2000/svg" viewBox="0 0 16 16"><path d="M12 14H4a4 4 0 01-.998-7.874 5 5 0 119.997 0A4.002 4.002 0 0112 14zm-5.94-3.61L4.415 8.745l1.647-1.646-.707-.707L3 8.744l2.354 2.354.707-.707zM10 7.099l1.646 1.646L10 10.391l.707.707 2.354-2.354-2.354-2.353-.707.707zM9 6l-3 6h1l3-6H9z"/></svg>
